images/Humanity/actions/16/media-seek-forward.svg

<?xml version="1.0" encoding="UTF-8" standalone="no"?>
<!-- Created with Inkscape (http://www.inkscape.org/) -->
<svg id="svg2415" xmlns="http://www.w3.org/2000/svg" height="16" width="16" version="1.1" xmlns:xlink="http://www.w3.org/1999/xlink">
 <defs id="defs2417">
  <linearGradient id="linearGradient3703">
   <stop id="stop3705" style="stop-color:#fff" offset="0"/>
   <stop id="stop3707" style="stop-color:#fff;stop-opacity:0" offset="1"/>
  </linearGradient>
  <linearGradient id="linearGradient3689" y2="11.622" gradientUnits="userSpaceOnUse" x2="4.5012" gradientTransform="translate(-.002651)" y1="5" x1=".76404">
   <stop id="stop2858" style="stop-color:#eeeeec" offset="0"/>
   <stop id="stop2860" style="stop-color:#babdb6" offset=".78131"/>
   <stop id="stop2862" style="stop-color:#a1a59b" offset="1"/>
  </linearGradient>
  <linearGradient id="linearGradient3713" y2="11.562" gradientUnits="userSpaceOnUse" x2="10.501" gradientTransform="translate(.99701)" y1="5.1798" x1="7.4232">
   <stop id="stop3617" style="stop-color:#eeeeec" offset="0"/>
   <stop id="stop3619" style="stop-color:#babdb6" offset=".69580"/>
   <stop id="stop3621" style="stop-color:#a1a59b" offset="1"/>
  </linearGradient>
  <linearGradient id="linearGradient3721" y2="13" xlink:href="#linearGradient3703" gradientUnits="userSpaceOnUse" x2="8" gradientTransform="translate(.99701)" y1="4" x1="8"/>
  <linearGradient id="linearGradient3725" y2="13" xlink:href="#linearGradient3703" gradientUnits="userSpaceOnUse" x2="8" gradientTransform="translate(-6.0027)" y1="4" x1="8"/>
 </defs>
 <path id="path5566" style="stroke-linejoin:round;stroke-width:1.0053;stroke:#888a86;display:block;fill:url(#linearGradient3689)" d="m0.5 3.502v9.9951l7.997-4.997-7.997-4.998z"/>
 <path id="path2854" style="stroke-linejoin:round;stroke-width:1.0053;stroke:#888a86;display:block;fill:url(#linearGradient3713)" d="m7.4997 3.502v9.9951l7.9973-4.997-7.9973-4.998z"/>
 <path id="path3711" style="opacity:.5;stroke-linejoin:round;stroke-width:1.0053;stroke:url(#linearGradient3721);display:block;fill:none" d="m8.497 5.4375v6.125l5.282-3.062-5.282-3.0625z"/>
 <path id="path3723" style="opacity:.5;stroke-linejoin:round;stroke-width:1.0053;stroke:url(#linearGradient3725);display:block;fill:none" d="m1.4973 5.4375v6.125l5.2817-3.062-5.2817-3.0625z"/>
</svg>

<?xml version="1.0" encoding="UTF-8" standalone="no"?>
<!-- Created with Inkscape (http://www.inkscape.org/) -->

<svg
   xmlns:dc="http://purl.org/dc/elements/1.1/"
   xmlns:cc="http://creativecommons.org/ns#"
   xmlns:rdf="http://www.w3.org/1999/02/22-rdf-syntax-ns#"
   xmlns:svg="http://www.w3.org/2000/svg"
   xmlns="http://www.w3.org/2000/svg"
   xmlns:xlink="http://www.w3.org/1999/xlink"
   xmlns:sodipodi="http://sodipodi.sourceforge.net/DTD/sodipodi-0.dtd"
   xmlns:inkscape="http://www.inkscape.org/namespaces/inkscape"
   id="svg2415"
   height="128"
   width="128"
   version="1.1"
   sodipodi:docname="media-seek-forward.svg"
   inkscape:version="0.92.5 (2060ec1f9f, 2020-04-08)">
  <metadata
     id="metadata23">
    <rdf:RDF>
      <cc:Work
         rdf:about="">
        <dc:format>image/svg+xml</dc:format>
        <dc:type
           rdf:resource="http://purl.org/dc/dcmitype/StillImage" />
        <dc:title></dc:title>
      </cc:Work>
    </rdf:RDF>
  </metadata>
  <sodipodi:namedview
     pagecolor="#ffffff"
     bordercolor="#666666"
     borderopacity="1"
     objecttolerance="10"
     gridtolerance="10"
     guidetolerance="10"
     inkscape:pageopacity="0"
     inkscape:pageshadow="2"
     inkscape:window-width="4240"
     inkscape:window-height="2338"
     id="namedview21"
     showgrid="false"
     inkscape:zoom="7.375"
     inkscape:cx="58.908264"
     inkscape:cy="32.622569"
     inkscape:window-x="144"
     inkscape:window-y="54"
     inkscape:window-maximized="1"
     inkscape:current-layer="svg2415" />
  <defs
     id="defs2417">
    <linearGradient
       id="linearGradient3703">
      <stop
         id="stop3705"
         style="stop-color:#fff"
         offset="0" />
      <stop
         id="stop3707"
         style="stop-color:#fff;stop-opacity:0"
         offset="1" />
    </linearGradient>
    <linearGradient
       id="linearGradient3689"
       y2="11.622"
       gradientUnits="userSpaceOnUse"
       x2="4.5012002"
       gradientTransform="translate(-0.002651)"
       y1="5"
       x1="0.76403999">
      <stop
         id="stop2858"
         style="stop-color:#eeeeec"
         offset="0" />
      <stop
         id="stop2860"
         style="stop-color:#babdb6"
         offset=".78131" />
      <stop
         id="stop2862"
         style="stop-color:#a1a59b"
         offset="1" />
    </linearGradient>
    <linearGradient
       id="linearGradient3713"
       y2="11.562"
       gradientUnits="userSpaceOnUse"
       x2="10.501"
       gradientTransform="translate(0.99701)"
       y1="5.1798"
       x1="7.4232001">
      <stop
         id="stop3617"
         style="stop-color:#eeeeec"
         offset="0" />
      <stop
         id="stop3619"
         style="stop-color:#babdb6"
         offset=".69580" />
      <stop
         id="stop3621"
         style="stop-color:#a1a59b"
         offset="1" />
    </linearGradient>
    <linearGradient
       id="linearGradient3721"
       y2="13"
       xlink:href="#linearGradient3703"
       gradientUnits="userSpaceOnUse"
       x2="8"
       gradientTransform="translate(0.99701)"
       y1="4"
       x1="8" />
    <linearGradient
       id="linearGradient3725"
       y2="13"
       xlink:href="#linearGradient3703"
       gradientUnits="userSpaceOnUse"
       x2="8"
       gradientTransform="translate(-6.0027)"
       y1="4"
       x1="8" />
  </defs>
  <g
     id="g834"
     transform="matrix(7.9990134,0,0,7.9990134,0.02006959,-4.0160831)">
    <path
       d="m 0.5,3.502 v 9.9951 L 8.497,8.5001 0.5,3.5021 Z"
       style="display:block;fill:url(#linearGradient3689);stroke:#888a86;stroke-width:1.00530005;stroke-linejoin:round"
       id="path5566"
       inkscape:connector-curvature="0" />
    <path
       d="m 7.4997,3.502 v 9.9951 L 15.497,8.5001 7.4997,3.5021 Z"
       style="display:block;fill:url(#linearGradient3713);stroke:#888a86;stroke-width:1.00530005;stroke-linejoin:round"
       id="path2854"
       inkscape:connector-curvature="0" />
    <path
       d="m 8.497,5.4375 v 6.125 L 13.779,8.5005 8.497,5.438 Z"
       style="display:block;opacity:0.5;fill:none;stroke:url(#linearGradient3721);stroke-width:1.00530005;stroke-linejoin:round"
       id="path3711"
       inkscape:connector-curvature="0" />
    <path
       d="m 1.4973,5.4375 v 6.125 L 6.779,8.5005 1.4973,5.438 Z"
       style="display:block;opacity:0.5;fill:none;stroke:url(#linearGradient3725);stroke-width:1.00530005;stroke-linejoin:round"
       id="path3723"
       inkscape:connector-curvature="0" />
  </g>
</svg>
